modules/themify-icons/icons/bar-chart.svg

<?xml version="1.0" encoding="utf-8"?>
<!-- Generated by IcoMoon.io -->
<!DOCTYPE svg PUBLIC "-//W3C//DTD SVG 1.1//EN" "http://www.w3.org/Graphics/SVG/1.1/DTD/svg11.dtd">
<svg version="1.1" xmlns="http://www.w3.org/2000/svg" xmlns:xlink="http://www.w3.org/1999/xlink" width="17" height="17" viewBox="0 0 17 17">
<g>
</g>
	<path d="M17 16v1h-17v-1h17zM2 10h2v5h1v-6h-4v6h1v-5zM7 7h2v8h1v-9h-4v9h1v-8zM12 3h2v12h1v-13h-4v13h1v-12z" fill="#000000" />
</svg>

<svg xmlns="http://www.w3.org/2000/svg" width="17" height="17" viewBox="0 0 17 17"><path d="M17 16v1H0v-1h17zM2 10h2v5h1V9H1v6h1v-5zm5-3h2v8h1V6H6v9h1V7zm5-4h2v12h1V2h-4v13h1V3z"/></svg>
